updated-assets/images/cryptocurrency.svg

<svg width="32" height="32" viewBox="0 0 32 32" fill="none" xmlns="http://www.w3.org/2000/svg">
<path d="M22.5 30.5C26.9183 30.5 30.5 26.9183 30.5 22.5C30.5 18.0817 26.9183 14.5 22.5 14.5C18.0817 14.5 14.5 18.0817 14.5 22.5C14.5 26.9183 18.0817 30.5 22.5 30.5Z" fill="#6562F1"/>
<path d="M21.6099 24.9999L21.9152 23.4736L24.2031 22.4567L23.7969 21.543L22.1554 22.2726L22.9903 18.0979L22.0097 17.9018L21.0361 22.77L19.2969 23.5429L19.7031 24.4568L20.7958 23.9711L20.5097 25.4018C20.4952 25.4744 20.4969 25.5492 20.5149 25.621C20.5328 25.6928 20.5664 25.7597 20.6133 25.8169C20.6602 25.8741 20.7192 25.9202 20.7861 25.9518C20.853 25.9835 20.926 25.9999 21 25.9999H25.5V24.9999H21.6099ZM22.5 28.9999C22.1001 28.9999 21.7011 28.9634 21.3079 28.8907L21.4901 27.9074C21.8663 27.9767 22.2486 28.0072 22.6311 27.9984L22.6542 28.9981C22.6029 28.9993 22.5515 28.9999 22.5 28.9999ZM23.9942 28.8271L23.7652 27.8537C24.137 27.7661 24.4986 27.6399 24.844 27.4769L25.2707 28.3813C24.862 28.5741 24.4342 28.7235 23.9942 28.8271ZM20.0112 28.5063C19.594 28.333 19.1959 28.1167 18.8234 27.8609L19.3897 27.0366C19.7047 27.253 20.0414 27.436 20.3944 27.5826L20.0112 28.5063ZM26.4261 27.6807L25.8216 26.8841C26.1261 26.6528 26.4059 26.3907 26.6565 26.1019L27.412 26.7571C27.1161 27.0981 26.7857 27.4076 26.4261 27.6806V27.6807ZM17.7951 26.9846C17.4835 26.6578 17.2066 26.2995 16.9689 25.9155L17.8192 25.3892C18.0205 25.7144 18.255 26.0178 18.5188 26.2946L17.7951 26.9846ZM28.1869 25.6501L27.3125 25.1648C27.4979 24.8308 27.6478 24.4782 27.7598 24.1129L28.7161 24.4058C28.5835 24.8379 28.4062 25.2549 28.1869 25.6501H28.1869ZM28.9744 23.0792L27.9784 22.9909C27.9927 22.8292 28 22.6639 28 22.4999C28 22.2816 27.9872 22.0634 27.9617 21.8466L28.9547 21.7292C28.9848 21.985 29 22.2423 29 22.4999C29 22.6933 28.9914 22.8882 28.9745 23.0792H28.9744ZM27.7097 20.7319C27.5869 20.3702 27.4266 20.0222 27.2314 19.6938L28.091 19.1829C28.3218 19.5713 28.5114 19.9828 28.6568 20.4106L27.7097 20.7319ZM17.7355 19.7502L16.8699 19.2495C17.0962 18.8587 17.3624 18.4923 17.6642 18.1564L18.408 18.8247C18.1525 19.1092 17.9271 19.4193 17.7355 19.7502ZM26.5482 18.7766C26.2892 18.4952 26.0018 18.2414 25.6906 18.0193L26.2714 17.2052C26.6389 17.4676 26.9782 17.7672 27.284 18.0994L26.5482 18.7766ZM19.2567 18.0574L18.6664 17.2502C19.0311 16.9836 19.4225 16.7556 19.8344 16.5701L20.2447 17.4819C19.8963 17.6389 19.5652 17.8318 19.2567 18.0574ZM24.6957 17.4555C24.3455 17.3029 23.9803 17.1874 23.606 17.111L23.806 16.1312C24.2489 16.2216 24.681 16.3583 25.0954 16.5388L24.6957 17.4555ZM21.3302 17.1244L21.1186 16.1471C21.56 16.0518 22.0101 16.0025 22.4616 16L22.4674 17C22.0851 17.0021 21.704 17.0438 21.3302 17.1244Z" fill="#9B99F5"/>
<path d="M9.5 30.5C13.9183 30.5 17.5 26.9183 17.5 22.5C17.5 18.0817 13.9183 14.5 9.5 14.5C5.08172 14.5 1.5 18.0817 1.5 22.5C1.5 26.9183 5.08172 30.5 9.5 30.5Z" fill="#FA8481"/>
<path d="M8.8826 28.971C8.43272 28.9285 7.9885 28.8392 7.55716 28.7045L7.85573 27.7501C8.22045 27.864 8.59607 27.9395 8.97648 27.9754L8.8826 28.971ZM10.2325 28.9591L10.121 27.9654C10.5006 27.9227 10.8747 27.8405 11.2372 27.7201L11.5528 28.669C11.124 28.8114 10.6815 28.9087 10.2325 28.9591ZM6.31604 28.1679C5.92255 27.9463 5.55309 27.6844 5.2136 27.3866L5.87329 26.6349C6.16063 26.8871 6.47337 27.1088 6.80648 27.2965L6.31604 28.1679ZM12.784 28.1104L12.278 27.2479C12.6077 27.0544 12.9164 26.8272 13.1993 26.57L13.8721 27.3098C13.538 27.6136 13.1734 27.8819 12.784 28.1104ZM4.29591 26.3952C4.02505 26.0338 3.79255 25.6452 3.60216 25.2357L4.50904 24.8144C4.67017 25.1609 4.86691 25.4897 5.0961 25.7954L4.29591 26.3952ZM14.7722 26.3024L13.9616 25.7169C14.1854 25.407 14.3764 25.0747 14.5313 24.7253L15.4456 25.1304C15.2624 25.5434 15.0368 25.9362 14.7722 26.3024ZM3.16398 23.9566C3.06345 23.5165 3.00883 23.0671 3.00098 22.6157L4.00085 22.5982C4.00746 22.9803 4.05367 23.3608 4.13873 23.7334L3.16398 23.9566ZM15.8609 23.8435L14.8822 23.6377C14.9606 23.2635 15.0001 22.8822 15 22.4999C15 22.4344 14.9989 22.3689 14.9965 22.3034L15.9959 22.2682C15.9987 22.3461 16 22.4242 16 22.5004C16 22.9517 15.9534 23.4018 15.8609 23.8435ZM4.09841 21.4582L3.11623 21.27C3.20141 20.8261 3.33286 20.3924 3.50841 19.9759L4.42979 20.3644C4.28144 20.7164 4.17037 21.083 4.09841 21.4582V21.4582ZM14.8385 21.1711C14.7465 20.8003 14.6159 20.4403 14.4488 20.0967L15.3479 19.6592C15.5456 20.0656 15.7002 20.4916 15.8092 20.9302L14.8385 21.1711ZM4.98166 19.3629L4.16066 18.7919C4.41863 18.4213 4.71429 18.0784 5.04291 17.7687L5.72866 18.4964C5.45039 18.7587 5.20004 19.0491 4.9816 19.363L4.98166 19.3629ZM13.8443 19.1263C13.6094 18.8245 13.344 18.5478 13.0522 18.3007L13.6985 17.5375C14.043 17.8294 14.3563 18.1561 14.6336 18.5124L13.8443 19.1263ZM6.63773 17.8023L6.11648 16.9489C6.50212 16.7134 6.9113 16.5188 7.33735 16.3684L7.67004 17.3115C7.30978 17.4387 6.96379 17.6032 6.63773 17.8023ZM12.1074 17.6559C11.7712 17.4745 11.4169 17.3288 11.0504 17.2212L11.3316 16.2617C11.7653 16.3889 12.1844 16.5613 12.5822 16.7759L12.1074 17.6559ZM8.7816 17.0463L8.65241 16.0546C9.0999 15.9968 9.55213 15.9848 10.002 16.019L9.92579 17.0161C9.54436 16.9871 9.16097 16.9973 8.7816 17.0463ZM12.424 22.2349L9.92398 18.2349C9.87903 18.163 9.81653 18.1036 9.74236 18.0625C9.66819 18.0214 9.58478 17.9999 9.49998 17.9999C9.41517 17.9999 9.33176 18.0214 9.25759 18.0625C9.18342 18.1036 9.12092 18.163 9.07598 18.2349L6.57598 22.2349C6.52632 22.3143 6.5 22.4062 6.5 22.4999C6.5 22.5936 6.52632 22.6854 6.57598 22.7649L9.07598 26.7649C9.12092 26.8368 9.18342 26.8961 9.25759 26.9372C9.33176 26.9783 9.41517 26.9999 9.49998 26.9999C9.58478 26.9999 9.66819 26.9783 9.74236 26.9372C9.81653 26.8961 9.87903 26.8368 9.92398 26.7649L12.424 22.7649C12.4736 22.6854 12.5 22.5936 12.5 22.4999C12.5 22.4062 12.4736 22.3143 12.424 22.2349ZM9.49998 19.4433L11.259 22.2578L9.49998 22.9614L7.74091 22.2578L9.49998 19.4433ZM9.49998 25.5566L8.23485 23.5324L9.31429 23.9642C9.43349 24.0119 9.56647 24.0119 9.68566 23.9642L10.765 23.5324L9.49998 25.5566Z" fill="#FCB0AE"/>
<path d="M22.2409 14.5046C23.3752 13.09 23.9953 11.332 23.9995 9.51883C24.0037 7.70563 23.3918 5.94478 22.2641 4.52492C21.1364 3.10506 19.5598 2.11041 17.7927 1.70402C16.0257 1.29762 14.173 1.50359 12.5383 2.28816C10.9036 3.07273 9.58395 4.38936 8.79563 6.02223C8.00731 7.6551 7.7971 9.50734 8.19944 11.2753C8.60178 13.0433 9.5928 14.6222 11.0101 15.7532C12.4274 16.8841 14.1868 17.5 16 17.5C16.0867 17.5 16.173 17.4981 16.2591 17.4954C16.9806 16.594 17.8891 15.8598 18.9218 15.3435C19.9545 14.8272 21.0869 14.541 22.2409 14.5046Z" fill="#F2C34E"/>
<path d="M10.9298 7.36443L10.0084 6.97586C9.83285 7.39238 9.70141 7.82614 9.61623 8.27005L10.5984 8.45818C10.6704 8.08302 10.7814 7.71644 10.9298 7.36443ZM12.2287 5.49643L11.5429 4.76868C11.2143 5.07838 10.9186 5.42129 10.6607 5.79193L11.4816 6.36299C11.7 6.04912 11.9504 5.75871 12.2287 5.49643ZM15.1524 3.05461L15.2816 4.0463C15.6609 3.99727 16.0443 3.98714 16.4257 4.01605L16.502 3.01899C16.0521 2.98484 15.5999 2.99678 15.1524 3.05461ZM21.3385 8.17105L22.3092 7.93018C22.2002 7.49159 22.0456 7.06562 21.8479 6.65924L20.9488 7.09674C21.1159 7.44025 21.2465 7.80032 21.3385 8.17105ZM14.17 4.31143L13.8374 3.36836C13.4113 3.51884 13.0021 3.7134 12.6165 3.94886L13.1377 4.8023C13.4638 4.60316 13.8098 4.43864 14.17 4.31143ZM20.3443 6.1263L21.1336 5.51236C20.8563 5.15605 20.543 4.82937 20.1985 4.53755L19.5522 5.30068C19.844 5.54785 20.1094 5.82453 20.3443 6.1263ZM10.5009 9.59811L9.50098 9.61561C9.50883 10.067 9.56345 10.5164 9.66398 10.9566L10.6387 10.7334C10.5537 10.3607 10.5075 9.98028 10.5009 9.59811ZM17.8316 3.26168L17.5504 4.2213C17.9169 4.32889 18.2712 4.47456 18.6074 4.65593L19.0822 3.77586C18.6844 3.56128 18.2653 3.38895 17.8316 3.26168ZM20.4616 12.7168L21.2722 13.3024C21.5368 12.9362 21.7624 12.5434 21.9456 12.1304L21.0313 11.7252C20.8764 12.0747 20.6854 12.407 20.4616 12.7168ZM22.496 9.26811L21.4966 9.30336C21.4989 9.36843 21.5 9.4338 21.5 9.49986C21.5001 9.88216 21.4606 10.2634 21.3822 10.6376L22.3609 10.8434C22.4534 10.4017 22.5 9.95155 22.5 9.50024C22.5 9.42411 22.4987 9.34599 22.496 9.26811ZM10.1022 12.2357C10.2926 12.6452 10.5251 13.0338 10.796 13.3951L11.5961 12.7954C11.3669 12.4896 11.1702 12.1608 11.0091 11.8144L10.1022 12.2357ZM18.778 14.2478L19.284 15.1104C19.6734 14.8818 20.0381 14.6135 20.3722 14.3097L19.6992 13.5699C19.4164 13.8271 19.1077 14.0543 18.778 14.2478ZM16.621 14.9653L16.7325 15.9591C17.1815 15.9086 17.6241 15.8114 18.0529 15.6689L17.7372 14.72C17.3747 14.8404 17.0005 14.9226 16.6209 14.9652L16.621 14.9653ZM11.7136 14.3865C12.0531 14.6843 12.4225 14.9462 12.816 15.1679L13.3065 14.2964C12.9734 14.1088 12.6606 13.8871 12.3733 13.6349L11.7136 14.3865ZM14.0572 15.7044C14.4885 15.8392 14.9327 15.9285 15.3826 15.9709L15.4765 14.9753C15.0961 14.9394 14.7204 14.8639 14.3557 14.75L14.0572 15.7044ZM18.8207 9.49986C19.1259 9.23158 19.3421 8.87663 19.4405 8.48234C19.5388 8.08805 19.5147 7.67314 19.3712 7.29294C19.2277 6.91274 18.9718 6.5853 18.6375 6.35428C18.3031 6.12325 17.9063 5.99962 17.5 5.99986H17V4.99986H16V5.99986H15V4.99986H14V5.99986H13V6.99986H14V11.9999H13V12.9999H14V13.9999H15V12.9999H16V13.9999H17V12.9999H17.5C17.9063 13.0001 18.3031 12.8765 18.6375 12.6454C18.9718 12.4144 19.2277 12.087 19.3712 11.7068C19.5147 11.3266 19.5388 10.9117 19.4405 10.5174C19.3421 10.1231 19.1259 9.76815 18.8207 9.49986ZM17.5 11.9999H15V9.99986H17.5C17.7652 9.99986 18.0195 10.1052 18.2071 10.2928C18.3946 10.4803 18.5 10.7346 18.5 10.9999C18.5 11.2651 18.3946 11.5194 18.2071 11.707C18.0195 11.8945 17.7652 11.9999 17.5 11.9999ZM17.5 8.99986H15V6.99986H17.5C17.7652 6.99986 18.0195 7.10522 18.2071 7.29276C18.3946 7.48029 18.5 7.73465 18.5 7.99986C18.5 8.26508 18.3946 8.51943 18.2071 8.70697C18.0195 8.89451 17.7652 8.99986 17.5 8.99986Z" fill="#FFE0A9"/>
</svg>

<svg width="32" height="32" fill="none" xmlns="http://www.w3.org/2000/svg"><path d="M22.5 30.5a8 8 0 1 0 0-16 8 8 0 0 0 0 16Z" fill="#6562F1"/><path d="m21.61 25 .305-1.526 2.288-1.017-.406-.914-1.642.73.835-4.175-.98-.196-.974 4.868-1.74.773.407.914 1.093-.486-.286 1.43A.499.499 0 0 0 21 26h4.5v-1h-3.89Zm.89 4c-.4 0-.799-.037-1.192-.11l.182-.983c.376.07.759.1 1.141.091l.023 1A6.594 6.594 0 0 1 22.5 29Zm1.494-.173-.229-.973a5.463 5.463 0 0 0 1.079-.377l.427.904a6.464 6.464 0 0 1-1.277.446Zm-3.983-.32a6.51 6.51 0 0 1-1.188-.646l.567-.824a5.5 5.5 0 0 0 1.004.546l-.383.923Zm6.415-.826-.604-.797a5.55 5.55 0 0 0 .835-.782l.755.655c-.296.341-.626.65-.986.924Zm-8.63-.696a6.53 6.53 0 0 1-.827-1.07l.85-.526c.201.325.436.629.7.906l-.724.69Zm10.39-1.335-.873-.485c.185-.334.335-.687.447-1.052l.956.293c-.133.432-.31.849-.53 1.244Zm.788-2.57-.996-.09a5.599 5.599 0 0 0-.016-1.143l.993-.118a6.594 6.594 0 0 1 .02 1.35Zm-1.264-2.348a5.48 5.48 0 0 0-.479-1.038l.86-.511c.23.388.42.8.566 1.228l-.947.32Zm-9.975-.982-.865-.5a6.51 6.51 0 0 1 .794-1.094l.744.669a5.54 5.54 0 0 0-.673.925Zm8.813-.973a5.538 5.538 0 0 0-.857-.758l.58-.814c.368.263.707.562 1.013.894l-.736.678Zm-7.291-.72-.59-.807a6.507 6.507 0 0 1 1.167-.68l.41.912c-.348.157-.679.35-.987.575Zm5.439-.601a5.463 5.463 0 0 0-1.09-.345l.2-.98c.443.09.875.227 1.29.408l-.4.916Zm-3.366-.332-.211-.977A6.535 6.535 0 0 1 22.462 16l.005 1a5.54 5.54 0 0 0-1.137.124Z" fill="#9B99F5"/><path d="M9.5 30.5a8 8 0 1 0 0-16 8 8 0 0 0 0 16Z" fill="#FA8481"/><path d="M8.883 28.971a6.496 6.496 0 0 1-1.326-.267l.299-.954c.364.114.74.19 1.12.225l-.093.996Zm1.35-.012-.112-.994c.38-.042.754-.125 1.116-.245l.316.949a6.5 6.5 0 0 1-1.32.29Zm-3.917-.791a6.534 6.534 0 0 1-1.102-.781l.66-.752c.287.252.6.474.932.662l-.49.87Zm6.468-.058-.506-.862c.33-.194.638-.42.921-.678l.673.74a6.529 6.529 0 0 1-1.088.8Zm-8.488-1.715a6.51 6.51 0 0 1-.694-1.16l.907-.42c.161.346.358.675.587.98l-.8.6Zm10.476-.093-.81-.585c.223-.31.414-.642.57-.992l.914.405a6.504 6.504 0 0 1-.674 1.172ZM3.164 23.957c-.1-.44-.155-.89-.163-1.341l1-.018c.006.382.053.763.138 1.135l-.975.224Zm12.697-.114-.979-.205a5.542 5.542 0 0 0 .114-1.335l1-.035a6.492 6.492 0 0 1-.135 1.575ZM4.098 21.459l-.982-.188c.085-.444.217-.878.392-1.294l.922.388c-.149.352-.26.719-.332 1.094Zm10.74-.287a5.466 5.466 0 0 0-.39-1.074l.9-.438c.198.407.352.833.461 1.271l-.97.241Zm-9.856-1.808-.821-.571a6.54 6.54 0 0 1 .882-1.023l.686.727a5.538 5.538 0 0 0-.747.867Zm8.862-.237a5.543 5.543 0 0 0-.792-.825l.646-.763c.345.291.658.618.936.974l-.79.614Zm-7.206-1.324-.522-.853a6.44 6.44 0 0 1 1.221-.58l.333.942c-.36.128-.706.292-1.032.491Zm5.47-.146a5.473 5.473 0 0 0-1.058-.435l.282-.96c.433.128.852.3 1.25.515l-.475.88Zm-3.326-.61-.13-.991c.448-.058.9-.07 1.35-.036l-.076.997a5.611 5.611 0 0 0-1.144.03Zm3.642 5.189-2.5-4a.5.5 0 0 0-.848 0l-2.5 4a.5.5 0 0 0 0 .53l2.5 4a.5.5 0 0 0 .848 0l2.5-4a.5.5 0 0 0 0-.53ZM9.5 19.443l1.759 2.815-1.759.703-1.76-.703 1.76-2.815Zm0 6.114-1.265-2.025 1.08.432a.5.5 0 0 0 .37 0l1.08-.432L9.5 25.557Z" fill="#FCB0AE"/><path d="M22.24 14.505a8 8 0 1 0-5.98 2.99 7.984 7.984 0 0 1 5.98-2.99Z" fill="#F2C34E"/><path d="m10.93 7.364-.922-.388c-.175.416-.307.85-.392 1.294l.982.188c.072-.375.183-.742.332-1.094Zm1.299-1.868-.686-.727c-.329.31-.624.652-.882 1.023l.82.571c.219-.314.47-.604.748-.867Zm2.923-2.441.13.991a5.608 5.608 0 0 1 1.144-.03l.076-.997a6.62 6.62 0 0 0-1.35.036ZM21.34 8.17l.97-.24a6.475 6.475 0 0 0-.461-1.272l-.9.438c.168.343.299.703.39 1.074Zm-7.169-3.86-.333-.943c-.426.15-.835.345-1.22.58l.52.854a5.517 5.517 0 0 1 1.033-.49Zm6.174 1.815.79-.614a6.548 6.548 0 0 0-.936-.974l-.646.763c.292.247.557.524.792.825Zm-9.843 3.472-1 .018c.008.451.062.9.163 1.34l.975-.223a5.535 5.535 0 0 1-.138-1.135Zm7.33-6.336-.28.96c.366.107.72.253 1.056.434l.475-.88a6.474 6.474 0 0 0-1.25-.514Zm2.63 9.455.811.585c.265-.366.49-.759.674-1.172l-.915-.405c-.155.35-.346.682-.57.992Zm2.035-3.449-1 .035a5.557 5.557 0 0 1-.114 1.335l.979.205a6.553 6.553 0 0 0 .135-1.575Zm-12.394 2.968c.19.41.423.798.694 1.16l.8-.6a5.51 5.51 0 0 1-.587-.982l-.907.422Zm8.676 2.012.506.862c.39-.228.754-.496 1.088-.8l-.673-.74a5.527 5.527 0 0 1-.921.678Zm-2.157.717.112.994a6.5 6.5 0 0 0 1.32-.29l-.316-.949c-.362.12-.736.203-1.116.245Zm-4.907-.579c.34.298.708.56 1.102.782l.49-.872a5.523 5.523 0 0 1-.933-.661l-.66.752Zm2.343 1.318a6.51 6.51 0 0 0 1.326.267l.094-.996a5.49 5.49 0 0 1-1.121-.225l-.299.954ZM18.821 9.5A2 2 0 0 0 17.5 6H17V5h-1v1h-1V5h-1v1h-1v1h1v5h-1v1h1v1h1v-1h1v1h1v-1h.5a1.999 1.999 0 0 0 1.32-3.5ZM17.5 12H15v-2h2.5a1 1 0 0 1 0 2Zm0-3H15V7h2.5a1 1 0 0 1 0 2Z" fill="#FFE0A9"/></svg>
